usr/share/icons/biglinux-icons-material/symbolic/status/network-error-symbolic.svg

<svg width="16" height="16" version="1.1" xmlns="http://www.w3.org/2000/svg">
 <path d="m1 2c-0.554 0-1 0.446-1 1v4c0 0.554 0.446 1 1 1h1v6h1v-3h3.0234a5.5 5.5 0 0 1 0.18555-1h-3.209v-2h1c0.554 0 1-0.446 1-1v-4h10v4.2598a5.5 5.5 0 0 1 1 1.0801v-5.3398c0-0.554-0.446-1-1-1h-11-1-2zm0 1h2 1v1h-3v-1zm0 2h1v1h1v-1h1v2h-1-1-1v-2zm4 8v1h1.6016a5.5 5.5 0 0 1-0.39258-1h-1.209z" fill="#dedede" stroke-linecap="round" stroke-linejoin="round" stroke-width="10" style="paint-order:stroke fill markers"/>
 <path d="m11.5 7a4.5 4.5 0 0 0-4.5 4.5 4.5 4.5 0 0 0 4.5 4.5 4.5 4.5 0 0 0 4.5-4.5 4.5 4.5 0 0 0-4.5-4.5zm0 1a3.5 3.5 0 0 1 3.5 3.5 3.5 3.5 0 0 1-3.5 3.5 3.5 3.5 0 0 1-3.5-3.5 3.5 3.5 0 0 1 3.5-3.5z" fill="#d35f5f" stroke-linecap="square" stroke-width="2" style="paint-order:stroke fill markers"/>
 <rect x="11" y="9" width="1" height="3" rx="0" ry="0" fill="#d35f5f" stroke-linecap="square" stroke-width="2" style="paint-order:stroke fill markers"/>
 <rect x="11" y="13" width="1" height="1" fill="#d35f5f" stroke-linecap="square" stroke-width="2" style="paint-order:stroke fill markers"/>
</svg>

<svg xmlns="http://www.w3.org/2000/svg" width="16" height="16"><path fill="#dedede" d="M1 2c-.554 0-1 .446-1 1v4c0 .554.446 1 1 1h1v6h1v-3h3.023a5.5 5.5 0 0 1 .186-1H3V8h1c.554 0 1-.446 1-1V3h10v4.26a5.5 5.5 0 0 1 1 1.08V3c0-.554-.446-1-1-1H1zm0 1h3v1H1V3zm0 2h1v1h1V5h1v2H1V5zm4 8v1h1.602a5.5 5.5 0 0 1-.393-1H5z" style="paint-order:stroke fill markers"/><path fill="#d35f5f" d="M11.5 7A4.5 4.5 0 0 0 7 11.5a4.5 4.5 0 0 0 4.5 4.5 4.5 4.5 0 0 0 4.5-4.5A4.5 4.5 0 0 0 11.5 7zm0 1a3.5 3.5 0 0 1 3.5 3.5 3.5 3.5 0 0 1-3.5 3.5A3.5 3.5 0 0 1 8 11.5 3.5 3.5 0 0 1 11.5 8z" style="paint-order:stroke fill markers"/><rect width="1" height="3" x="11" y="9" fill="#d35f5f" rx="0" ry="0" style="paint-order:stroke fill markers"/><path fill="#d35f5f" d="M11 13h1v1h-1z" style="paint-order:stroke fill markers"/></svg>
